usr/share/icons/biglinux-icons-material/16/actions/document-edit-decrypt-verify.svg

<svg xmlns="http://www.w3.org/2000/svg" viewBox="0 0 16 16"><path d="M3 2v2h2V2H3zm2 2v2h2V4H5zm2 0h2V2H7v2zm2 0v2h2V4H9zm2 0h2V2h-2v2zM9 6C7.338 6 6 7.338 6 9s1.338 3 3 3c.65 0 1.26-.214 1.75-.563L13.281 14l.719-.719-2.563-2.531c.349-.49.563-1.1.563-1.75 0-1.662-1.338-3-3-3zM3 6v8h6v-1H4V6H3zm6 1c1.108 0 2 .892 2 2s-.892 2-2 2-2-.892-2-2 .892-2 2-2z" style="fill:currentColor;fill-opacity:1;stroke:none;color:#dedede"/></svg>

<svg xmlns="http://www.w3.org/2000/svg" viewBox="0 0 16 16">
  <defs id="defs3051">
    <style type="text/css" id="current-color-scheme">
      .ColorScheme-Text {
        color:#dedede;
      }
      </style>
  </defs>
 <path style="fill:currentColor;fill-opacity:1;stroke:none" 
     d="M 3 2 L 3 4 L 5 4 L 5 2 L 3 2 z M 5 4 L 5 6 L 7 6 L 7 4 L 5 4 z M 7 4 L 9 4 L 9 2 L 7 2 L 7 4 z M 9 4 L 9 6 L 11 6 L 11 4 L 9 4 z M 11 4 L 13 4 L 13 2 L 11 2 L 11 4 z M 9 6 C 7.338 6 6 7.338 6 9 C 6 10.662 7.338 12 9 12 C 9.64939 12 10.26003 11.7855 10.75 11.4375 L 13.28125 14 L 14 13.28125 L 11.4375 10.75 C 11.78555 10.2601 12 9.6494 12 9 C 12 7.338 10.662 6 9 6 z M 3 6 L 3 13 L 3 14 L 9 14 L 9 13 L 4 13 L 4 6 L 3 6 z M 9 7 C 10.108 7 11 7.892 11 9 C 11 10.108 10.108 11 9 11 C 7.892 11 7 10.108 7 9 C 7 7.892 7.892 7 9 7 z "
     class="ColorScheme-Text"
     />
</svg>
